icons/lifebuoy.svg

<svg width="24" height="24" viewBox="0 0 24 24" fill="none" xmlns="http://www.w3.org/2000/svg">
<path fill-rule="evenodd" clip-rule="evenodd" d="M7.09402 5.6798L9.2423 7.82808C10.9088 6.72397 13.0912 6.72397 14.7577 7.82808L16.906 5.6798C14.0281 3.44007 9.97192 3.44007 7.09402 5.6798ZM18.3202 7.09402L16.1719 9.2423C17.276 10.9088 17.276 13.0912 16.1719 14.7577L18.3202 16.906C20.5599 14.0281 20.5599 9.97192 18.3202 7.09402ZM16.906 18.3202L14.7577 16.1719C13.0912 17.276 10.9088 17.276 9.2423 16.1719L7.09402 18.3202C9.97192 20.5599 14.0281 20.5599 16.906 18.3202ZM5.6798 16.906L7.82808 14.7577C6.72397 13.0912 6.72397 10.9088 7.82808 9.2423L5.6798 7.09402C3.44007 9.97192 3.44007 14.0281 5.6798 16.906ZM4.92893 4.92893C8.83418 1.02369 15.1658 1.02369 19.0711 4.92893C22.9763 8.83418 22.9763 15.1658 19.0711 19.0711C15.1658 22.9763 8.83418 22.9763 4.92893 19.0711C1.02369 15.1658 1.02369 8.83418 4.92893 4.92893ZM14.1213 9.87868C12.9497 8.70711 11.0503 8.70711 9.87868 9.87868C8.70711 11.0503 8.70711 12.9497 9.87868 14.1213C11.0503 15.2929 12.9497 15.2929 14.1213 14.1213C15.2929 12.9497 15.2929 11.0503 14.1213 9.87868Z" fill="black"/>
</svg>

<svg
  width="24"
  height="24"
  viewBox="0 0 24 24"
  xmlns="http://www.w3.org/2000/svg"
>
  <path
    fill-rule="evenodd"
    clip-rule="evenodd"
    d="M7.094 5.68l2.148 2.148a5.006 5.006 0 0 1 5.516 0l2.148-2.148a8.004 8.004 0 0 0-9.812 0zM18.32 7.094l-2.148 2.148a5.006 5.006 0 0 1 0 5.516l2.148 2.148a8.004 8.004 0 0 0 0-9.812zM16.906 18.32l-2.148-2.148a5.006 5.006 0 0 1-5.516 0L7.094 18.32a8.004 8.004 0 0 0 9.812 0zM5.68 16.906l2.148-2.148a5.006 5.006 0 0 1 0-5.516L5.68 7.094a8.004 8.004 0 0 0 0 9.812zM4.929 4.929c3.905-3.905 10.237-3.905 14.142 0 3.905 3.905 3.905 10.237 0 14.142-3.905 3.905-10.237 3.905-14.142 0-3.905-3.905-3.905-10.237 0-14.142zm9.192 4.95A3 3 0 1 0 9.88 14.12 3 3 0 0 0 14.12 9.88z"
  />
</svg>
